public/themes/EC/images/ico-arrow.svg

<?xml version="1.0" encoding="UTF-8"?>
<svg width="20px" height="30px" viewBox="0 0 20 30" version="1.1" xmlns="http://www.w3.org/2000/svg" xmlns:xlink="http://www.w3.org/1999/xlink">
    <!-- Generator: Sketch 61 (89581) - https://sketch.com -->
    <title>Next-Buttons Copy</title>
    <desc>Created with Sketch.</desc>
    <g id="Page-1" stroke="none" stroke-width="1" fill="none" fill-rule="evenodd">
        <g id="GridViewQuickPDP-Copy-4" transform="translate(-680.000000, -231.000000)" fill="#9A9A9F">
            <g id="Next-Buttons-Copy" transform="translate(680.000000, 231.000000)">
                <g id="Next_Button">
                    <path d="M1.27504554,30 C1.10503862,30 0.941105829,29.9755623 0.783242259,29.9266862 C0.625378689,29.8778101 0.48573224,29.8044971 0.364298725,29.7067449 C0.121431694,29.5112405 0,29.2766387 0,29.0029326 C0,28.7292264 0.121431694,28.4946246 0.364298725,28.2991202 L17.0127505,14.8973607 L0.619307832,1.73020528 C0.376440801,1.53470088 0.255009107,1.29521158 0.255009107,1.01173021 C0.255009107,0.728248827 0.376440801,0.488759531 0.619307832,0.293255132 C0.862174863,0.0977507331 1.15968251,0 1.51183971,0 C1.8639969,0 2.16150455,0.0977507331 2.40437158,0.293255132 L19.6357013,14.1935484 C19.8785683,14.3890528 20,14.6236545 20,14.8973607 C20,15.1710669 19.8785683,15.4056686 19.6357013,15.601173 L2.14936248,29.7067449 C2.02792896,29.8044971 1.88828251,29.8778101 1.73041894,29.9266862 C1.57255537,29.9755623 1.42076576,30 1.27504554,30 Z" id="Arrow_Next_Icon"></path>
                </g>
            </g>
        </g>
    </g>
</svg>

<svg width="20" height="30" viewBox="0 0 20 30" xmlns="http://www.w3.org/2000/svg"><title>Next-Buttons Copy</title><path d="M1.275 30c-.17 0-.334-.024-.492-.073a1.25 1.25 0 0 1-.419-.22C.121 29.51 0 29.277 0 29.003c0-.274.121-.508.364-.704l16.649-13.402L.619 1.73c-.243-.195-.364-.435-.364-.718 0-.284.121-.523.364-.719C.862.098 1.16 0 1.512 0s.65.098.892.293l17.232 13.9c.243.196.364.43.364.704 0 .274-.121.509-.364.704L2.149 29.707a1.25 1.25 0 0 1-.419.22 1.53 1.53 0 0 1-.455.073z" fill="#9A9A9F" fill-rule="evenodd"/></svg>
